X:79
T:Pollonesse no 79
T:ur Andreas Dahlgrens Notbok
N:
C:Trad.
B:Andreas Dahlgrens Notbok
D:
Z:Konverterad till abc av Olle Paulsson 170413
Z:http://fmk.musikverket.se/browselarge.php?lang=sw&katalogid=Ma+7&bildnr=00029
M:3/4
L:1/16
K:G
g2dc [dB]2A2G2B2 | A2GF G2D2B,2G,2 | (Bdc)B (AcB)A G2B2 |(gbag) (fag)f e2g2 | f2ed f2a2d'2g2 | fed^c d4 D4:|
|:d2AG F2E2D2F2 | E2D^C D2F2A2c2 | B2AG B2d2e2g2 | fgaf d4 d4 | d2fa d2cB c4 | c2fa c2BA B4 | B2c2 d2ef g2c2 | BAGF G4 G,4:|

